X:395
T:a Trip to Camberwell
A:Wyresdale, Lancashire
B:H.S.J. Jackson, 1823
L:1/8
M:2/4
O:England
Z:Richard Robinson 
%%TUNEURL: http://www.leeds.ac.uk/music/Info/RRTuneBk/gettune/00000e27.html
%%ID:00000e27
K:F
AcTcf | BTddf | cAGF | EGGB | AcTcf | Bdfd | cAGc | AFF ::
f2c'2 | gec'e | fdgf | ecc2 | dBBd  | cAfA | BGcB | AFF ::
%page:47
